public/images/poses-lg/Mountain.svg

<svg width="800" height="800" fill="none" xmlns="http://www.w3.org/2000/svg"><g clip-path="url(#a)" stroke="#000" stroke-width="5" stroke-miterlimit="10"><path d="M456.205 390.981c8.129 31.118 16.662 76.491 10.393 117.235-6.229 40.487-11.305 52.893-13.097 90.812-1.387 29.356-14.977 96.097-16.862 118.995-1.865 22.686-.133 58.183 3.766 65.083 3.896 6.9 2.71 14.971-14.565 14.971-17.277 0-27.269-3.964-22.867-15.116 4.406-11.159 9.88-41.647 10.333-92.729.453-51.083-3.726-43.842-6.434-97.565-1.479-29.245-3.172-71.178-3.172-102.443 0-6.264-2.646-29.76-3.627-29.76-.979 0-3.542 23.547-3.542 29.856 0 33.924-1.733 73.102-3.21 102.347-2.709 53.723-6.889 46.482-6.437 97.565.451 51.082 5.929 81.57 10.331 92.729 4.405 11.152-5.587 15.116-22.864 15.116-17.274 0-18.461-8.072-14.565-14.971 3.896-6.9 5.63-42.397 3.764-65.083-1.884-22.899-15.474-89.639-16.863-118.995-1.792-37.919-9.575-50.083-13.095-90.812-3.724-43.097 2.262-86.117 10.395-117.235 0 0 25.292 8.381 56.109 8.381s56.109-8.381 56.109-8.381Z" fill="#fff"/><path d="M456.205 390.981c8.129 31.118 16.662 76.491 10.393 117.235-6.229 40.487-11.305 52.893-13.097 90.812-1.387 29.356-14.977 96.097-16.862 118.995-1.865 22.686-.133 58.183 3.766 65.083 3.896 6.9 2.71 14.971-14.565 14.971-17.277 0-27.269-3.964-22.867-15.116 4.406-11.159 9.88-41.647 10.333-92.729.453-51.083-3.726-43.842-6.434-97.565-1.479-29.245-3.172-71.178-3.172-102.443 0-6.264-2.646-29.76-3.627-29.76-.979 0-3.542 23.547-3.542 29.856 0 33.924-1.733 73.102-3.21 102.347-2.709 53.723-6.889 46.482-6.437 97.565.451 51.082 5.929 81.57 10.331 92.729 4.405 11.152-5.587 15.116-22.864 15.116-17.274 0-18.461-8.072-14.565-14.971 3.896-6.9 5.63-42.397 3.764-65.083-1.884-22.899-15.474-89.639-16.863-118.995-1.792-37.919-9.575-50.083-13.095-90.812-3.724-43.097 2.262-86.117 10.395-117.235 0 0 25.292 8.381 56.109 8.381s56.109-8.381 56.109-8.381Z"/><path d="M461.658 297.588s-14.813-21.509-4.942-58.409c0 0-47.48-.698-43.643-45.907l2.284-21.626h-30.666l2.284 21.626c3.84 45.21-43.646 45.907-43.646 45.907 9.873 36.9-4.942 58.409-4.942 58.409 18.257 50.299 5.456 93.393 5.456 93.393s28.75 8.379 56.182 8.379c27.43 0 56.179-8.379 56.179-8.379s-12.805-43.094 5.454-93.393Z" fill="#fff"/><path d="M461.658 297.588s-14.813-21.509-4.942-58.409c0 0-47.48-.698-43.643-45.907l2.284-21.626h-30.666l2.284 21.626c3.84 45.21-43.646 45.907-43.646 45.907 9.873 36.9-4.942 58.409-4.942 58.409 18.257 50.299 5.456 93.393 5.456 93.393s28.75 8.379 56.182 8.379c27.43 0 56.179-8.379 56.179-8.379s-12.805-43.094 5.454-93.393Z"/><path d="M343.275 239.178c-19.511 6.077-28.388 12.025-33.808 53.125-3.563 27.034-4.274 36.66-4.326 40.089-.033 2.18-.148 4.35-.405 6.521-1.075 9.035-3.499 29.384-5.21 43.619-2.258 18.786-3.221 73.18-6.669 95.136-2.595 16.521-7.497 27.968.007 45.567 4.084 9.583 14.461-17.502 15.972-26.169.889-5.093 2.783-11.515 2.076-16.477-.76-5.349-4.153-9.15-3.813-11.995 1.184-9.982 12.303-56.902 15.465-81.172 3.159-24.268 11.221-79.173 15.771-89.835 4.553-10.663 7.887-18.296 8.308-33.565.42-15.262-3.368-24.844-3.368-24.844Z" fill="#fff"/><path d="M343.275 239.178c-19.511 6.077-28.388 12.025-33.808 53.125-3.563 27.034-4.274 36.66-4.326 40.089-.033 2.18-.148 4.35-.405 6.521-1.075 9.035-3.499 29.384-5.21 43.619-2.258 18.786-3.221 73.18-6.669 95.136-2.595 16.521-7.497 27.968.007 45.567 4.084 9.583 14.461-17.502 15.972-26.169.889-5.093 2.783-11.515 2.076-16.477-.76-5.349-4.153-9.15-3.813-11.995 1.184-9.982 12.303-56.902 15.465-81.172 3.159-24.268 11.221-79.173 15.771-89.835 4.553-10.663 7.887-18.296 8.308-33.565.42-15.262-3.368-24.844-3.368-24.844Z"/><path d="M456.725 239.178c19.51 6.077 28.387 12.025 33.808 53.125 3.564 27.034 4.274 36.66 4.326 40.089.033 2.18.146 4.35.403 6.521a53492.05 53492.05 0 0 0 5.209 43.619c2.263 18.786 3.22 73.18 6.671 95.136 2.594 16.521 7.499 27.968-.009 45.567-4.082 9.583-14.46-17.502-15.971-26.169-.891-5.093-2.783-11.515-2.076-16.477.762-5.349 4.153-9.15 3.813-11.995-1.183-9.982-12.302-56.902-15.462-81.172-3.162-24.268-11.221-79.173-15.775-89.835-4.551-10.663-7.881-18.296-8.309-33.565-.415-15.262 3.372-24.844 3.372-24.844Z" fill="#fff"/><path d="M456.725 239.178c19.51 6.077 28.387 12.025 33.808 53.125 3.564 27.034 4.274 36.66 4.326 40.089.033 2.18.146 4.35.403 6.521a53492.05 53492.05 0 0 0 5.209 43.619c2.263 18.786 3.22 73.18 6.671 95.136 2.594 16.521 7.499 27.968-.009 45.567-4.082 9.583-14.46-17.502-15.971-26.169-.891-5.093-2.783-11.515-2.076-16.477.762-5.349 4.153-9.15 3.813-11.995-1.183-9.982-12.302-56.902-15.462-81.172-3.162-24.268-11.221-79.173-15.775-89.835-4.551-10.663-7.881-18.296-8.309-33.565-.415-15.262 3.372-24.844 3.372-24.844ZM443.268 236.853c-7.514 14.146-27.994 24.567-43.243 24.567-15.25 0-35.731-10.421-43.245-24.567"/><path d="M375.992 172.596c-4.286-7.352.039-14.237-1.068-23.246-1.752-14.305 18.958-27.486 37.407-25.816 24.363 2.209 21.438 77.888 7.217 78.616-8.422.432-23.363-6.313-33.813-18.82-3.36-4.022-9.743-10.734-9.743-10.734Z" fill="#fff"/><path d="M375.992 172.596c-4.286-7.352.039-14.237-1.068-23.246-1.752-14.305 18.958-27.486 37.407-25.816 24.363 2.209 21.438 77.888 7.217 78.616-8.422.432-23.363-6.313-33.813-18.82-3.36-4.022-9.743-10.734-9.743-10.734Z"/><path d="M422.074 132.777c-1.046 13.256-13.629 36.799-32.607 31.649-21.333-5.787-13.139 5.776-11.64 9.372 1.501 3.597 11.636 10.697 9.425 11.608-2.209.916-29.412-10.908-31.288-30.162-1.875-19.255 7.023-27.946 18.799-33.363 11.777-5.418 30.563-5.483 41.645 1.105 11.08 6.585 5.666 9.791 5.666 9.791Z" fill="#000"/><path d="M411.7 730.757c18.099 3.36 24.334-1.617 24.334-1.617M388.523 730.757c-18.102 3.36-24.335-1.617-24.335-1.617"/></g><defs><clipPath id="a"><path fill="#fff" d="M0 0h800v800H0z"/></clipPath></defs></svg>

<svg width="800" height="800" viewBox="0 0 800 800" fill="none" xmlns="http://www.w3.org/2000/svg">
<g clip-path="url(#clip0_298_5858)">
<path d="M456.205 390.981C464.334 422.099 472.867 467.472 466.598 508.216C460.369 548.703 455.293 561.109 453.501 599.028C452.114 628.384 438.524 695.125 436.639 718.023C434.774 740.709 436.506 776.206 440.405 783.106C444.301 790.006 443.115 798.077 425.84 798.077C408.563 798.077 398.571 794.113 402.973 782.961C407.379 771.802 412.853 741.314 413.306 690.232C413.759 639.149 409.58 646.39 406.872 592.667C405.393 563.422 403.7 521.489 403.7 490.224C403.7 483.96 401.054 460.464 400.073 460.464C399.094 460.464 396.531 484.011 396.531 490.32C396.531 524.244 394.798 563.422 393.321 592.667C390.612 646.39 386.432 639.149 386.884 690.232C387.335 741.314 392.813 771.802 397.215 782.961C401.62 794.113 391.628 798.077 374.351 798.077C357.077 798.077 355.89 790.005 359.786 783.106C363.682 776.206 365.416 740.709 363.55 718.023C361.666 695.124 348.076 628.384 346.687 599.028C344.895 561.109 337.112 548.945 333.592 508.216C329.868 465.119 335.854 422.099 343.987 390.981C343.987 390.981 369.279 399.362 400.096 399.362C430.913 399.362 456.205 390.981 456.205 390.981Z" fill="white" stroke="black" stroke-width="5" stroke-miterlimit="10"/>
<path d="M456.205 390.981C464.334 422.099 472.867 467.472 466.598 508.216C460.369 548.703 455.293 561.109 453.501 599.028C452.114 628.384 438.524 695.125 436.639 718.023C434.774 740.709 436.506 776.206 440.405 783.106C444.301 790.006 443.115 798.077 425.84 798.077C408.563 798.077 398.571 794.113 402.973 782.961C407.379 771.802 412.853 741.314 413.306 690.232C413.759 639.149 409.58 646.39 406.872 592.667C405.393 563.422 403.7 521.489 403.7 490.224C403.7 483.96 401.054 460.464 400.073 460.464C399.094 460.464 396.531 484.011 396.531 490.32C396.531 524.244 394.798 563.422 393.321 592.667C390.612 646.39 386.432 639.149 386.884 690.232C387.335 741.314 392.813 771.802 397.215 782.961C401.62 794.113 391.628 798.077 374.351 798.077C357.077 798.077 355.89 790.005 359.786 783.106C363.682 776.206 365.416 740.709 363.55 718.023C361.666 695.124 348.076 628.384 346.687 599.028C344.895 561.109 337.112 548.945 333.592 508.216C329.868 465.119 335.854 422.099 343.987 390.981C343.987 390.981 369.279 399.362 400.096 399.362C430.913 399.362 456.205 390.981 456.205 390.981Z" stroke="black" stroke-width="5" stroke-miterlimit="10"/>
<path d="M461.658 297.588C461.658 297.588 446.845 276.079 456.716 239.179C456.716 239.179 409.236 238.481 413.073 193.272L415.357 171.646H400.024H384.691L386.975 193.272C390.815 238.482 343.329 239.179 343.329 239.179C353.202 276.079 338.387 297.588 338.387 297.588C356.644 347.887 343.843 390.981 343.843 390.981C343.843 390.981 372.593 399.36 400.025 399.36C427.455 399.36 456.204 390.981 456.204 390.981C456.204 390.981 443.399 347.887 461.658 297.588Z" fill="white" stroke="black" stroke-width="5" stroke-miterlimit="10"/>
<path d="M461.658 297.588C461.658 297.588 446.845 276.079 456.716 239.179C456.716 239.179 409.236 238.481 413.073 193.272L415.357 171.646H400.024H384.691L386.975 193.272C390.815 238.482 343.329 239.179 343.329 239.179C353.202 276.079 338.387 297.588 338.387 297.588C356.644 347.887 343.843 390.981 343.843 390.981C343.843 390.981 372.593 399.36 400.025 399.36C427.455 399.36 456.204 390.981 456.204 390.981C456.204 390.981 443.399 347.887 461.658 297.588Z" stroke="black" stroke-width="5" stroke-miterlimit="10"/>
<path d="M343.275 239.178C323.764 245.255 314.887 251.203 309.467 292.303C305.904 319.337 305.193 328.963 305.141 332.392C305.108 334.572 304.993 336.742 304.736 338.913C303.661 347.948 301.237 368.297 299.526 382.532C297.268 401.318 296.305 455.712 292.857 477.668C290.262 494.189 285.36 505.636 292.864 523.235C296.948 532.818 307.325 505.733 308.836 497.066C309.725 491.973 311.619 485.551 310.912 480.589C310.152 475.24 306.759 471.439 307.099 468.594C308.283 458.612 319.402 411.692 322.564 387.422C325.723 363.154 333.785 308.249 338.335 297.587C342.888 286.924 346.222 279.291 346.643 264.022C347.063 248.76 343.275 239.178 343.275 239.178Z" fill="white" stroke="black" stroke-width="5" stroke-miterlimit="10"/>
<path d="M343.275 239.178C323.764 245.255 314.887 251.203 309.467 292.303C305.904 319.337 305.193 328.963 305.141 332.392C305.108 334.572 304.993 336.742 304.736 338.913C303.661 347.948 301.237 368.297 299.526 382.532C297.268 401.318 296.305 455.712 292.857 477.668C290.262 494.189 285.36 505.636 292.864 523.235C296.948 532.818 307.325 505.733 308.836 497.066C309.725 491.973 311.619 485.551 310.912 480.589C310.152 475.24 306.759 471.439 307.099 468.594C308.283 458.612 319.402 411.692 322.564 387.422C325.723 363.154 333.785 308.249 338.335 297.587C342.888 286.924 346.222 279.291 346.643 264.022C347.063 248.76 343.275 239.178 343.275 239.178Z" stroke="black" stroke-width="5" stroke-miterlimit="10"/>
<path d="M456.725 239.178C476.235 245.255 485.112 251.203 490.533 292.303C494.097 319.337 494.807 328.963 494.859 332.392C494.892 334.572 495.005 336.742 495.262 338.913C496.337 347.948 498.763 368.297 500.471 382.532C502.734 401.318 503.691 455.712 507.142 477.668C509.736 494.189 514.641 505.636 507.133 523.235C503.051 532.818 492.673 505.733 491.162 497.066C490.271 491.973 488.379 485.551 489.086 480.589C489.848 475.24 493.239 471.439 492.899 468.594C491.716 458.612 480.597 411.692 477.437 387.422C474.275 363.154 466.216 308.249 461.662 297.587C457.111 286.924 453.781 279.291 453.353 264.022C452.938 248.76 456.725 239.178 456.725 239.178Z" fill="white" stroke="black" stroke-width="5" stroke-miterlimit="10"/>
<path d="M456.725 239.178C476.235 245.255 485.112 251.203 490.533 292.303C494.097 319.337 494.807 328.963 494.859 332.392C494.892 334.572 495.005 336.742 495.262 338.913C496.337 347.948 498.763 368.297 500.471 382.532C502.734 401.318 503.691 455.712 507.142 477.668C509.736 494.189 514.641 505.636 507.133 523.235C503.051 532.818 492.673 505.733 491.162 497.066C490.271 491.973 488.379 485.551 489.086 480.589C489.848 475.24 493.239 471.439 492.899 468.594C491.716 458.612 480.597 411.692 477.437 387.422C474.275 363.154 466.216 308.249 461.662 297.587C457.111 286.924 453.781 279.291 453.353 264.022C452.938 248.76 456.725 239.178 456.725 239.178Z" stroke="black" stroke-width="5" stroke-miterlimit="10"/>
<path d="M443.268 236.853C435.754 250.999 415.274 261.42 400.025 261.42C384.775 261.42 364.294 250.999 356.78 236.853" stroke="black" stroke-width="5" stroke-miterlimit="10"/>
<path d="M375.992 172.596C371.706 165.244 376.031 158.359 374.924 149.35C373.172 135.045 393.882 121.864 412.331 123.534C436.694 125.743 433.769 201.422 419.548 202.15C411.126 202.582 396.185 195.837 385.735 183.33C382.375 179.308 375.992 172.596 375.992 172.596Z" fill="white" stroke="black" stroke-width="5" stroke-miterlimit="10"/>
<path d="M375.992 172.596C371.706 165.244 376.031 158.359 374.924 149.35C373.172 135.045 393.882 121.864 412.331 123.534C436.694 125.743 433.769 201.422 419.548 202.15C411.126 202.582 396.185 195.837 385.735 183.33C382.375 179.308 375.992 172.596 375.992 172.596Z" stroke="black" stroke-width="5" stroke-miterlimit="10"/>
<path d="M422.074 132.777C421.028 146.033 408.445 169.576 389.467 164.426C368.134 158.639 376.328 170.202 377.827 173.798C379.328 177.395 389.463 184.495 387.252 185.406C385.043 186.322 357.84 174.498 355.964 155.244C354.089 135.989 362.987 127.298 374.763 121.881C386.54 116.463 405.326 116.398 416.408 122.986C427.488 129.571 422.074 132.777 422.074 132.777Z" fill="black" stroke="black" stroke-width="5" stroke-miterlimit="10"/>
<path d="M411.7 730.757C429.799 734.117 436.034 729.14 436.034 729.14" stroke="black" stroke-width="5" stroke-miterlimit="10"/>
<path d="M388.523 730.757C370.421 734.117 364.188 729.14 364.188 729.14" stroke="black" stroke-width="5" stroke-miterlimit="10"/>
</g>
<defs>
<clipPath id="clip0_298_5858">
<rect width="800" height="800" fill="white"/>
</clipPath>
</defs>
</svg>
